X:1
T:String Quartet in D minor, Hob.III: 76, I ("Quinten")
T:Quinten
T:Haydn, Joseph (1732-1809)
T:Op. 76, No. 2
T:String Quartet in D minor, Hob.III:76, I ("Quinten")
T:Studio KonKon, IMSLP#479177 Public Domain © comp.1796-97, pub.1840-45
T:Studio KonKon, IMSLP#479177 Public Domain © comp.1796-97, pub.1840-45
T:Studio KonKon, IMSLP#479177 Public Domain © comp.1796-97, pub.1840-45
T:Studio KonKon, IMSLP#479177 Public Domain © comp.1796-97, pub.1840-45
T:Studio KonKon, IMSLP#479177 Public Domain © comp.1796-97, pub.1840-45
T:Studio KonKon, IMSLP#479177 Public Domain © comp.1796-97, pub.1840-45
T:Studio KonKon, IMSLP#479177 Public Domain © comp.1796-97, pub.1840-45
T:Studio KonKon, IMSLP#479177 Public Domain © comp.1796-97, pub.1840-45
T:Studio KonKon, IMSLP#479177 Public Domain © comp.1796-97, pub.1840-45
C:Haydn, Joseph
C:(1732-1709)
Z:Haydn, Joseph
Z:Studio KonKon, IMSLP#479177
Z:Public Domain © comp.1796-97, pub.1840-45
%%score [ ( 1 2 ) ( 3 4 ) 5 6 ]
L:1/8
Q:1/4=120
M:4/4
K:Dmin
V:1 treble nm="Violin I" snm="Vln. I"
V:2 treble 
V:3 treble nm="Violin II" snm="Vln."
V:4 treble 
V:5 alto nm="Viola" snm="Vla."
V:6 bass nm="Violoncello" snm="Vc."
V:1
!f!"^Allegro" A4 D4 | E4 A,4 | (D^CDE) (GF EA) | [Dd]2 (=c/B/A/^G/) .A2 z2 |!p! (a4 d4) | (e4 A4) | %6
({/e} d^cde) (gfe)f | (agf)a (c'ba)d' |!mf! .^c'2 z ._b .a2 z .B | .A2 z .B, .A,2 z!f! .^F | %10
({/A} G^FGA) B2 (A/G/=F/E/) | .A z .^C z .D2 z2 | (A/=c/f/a/) (.c'.c') (c'd) (c'/b/a/g/) | %13
 (f/e/)(a/g/) (f/e/)(d/c/) (B2 A).c | c/D/E/^F/ G/A/B/c/ .d.d.d.g | (Te3 d/e/) (=fa).c'.c' | %16
 (c'=b).b.b z ._b.b.b | (ba).a.a{/d} d'2 (c'/b/a/g/) | (f3 g/f/) .ec/d/ e/f/g/a/ | b4 e4 | c'4 f4 | %21
 d' z .g z .c' z .f.c' |"^cresc." ([cg]b).a.c' ([cg]b).a.c' | %23
!f! (g/b/)(g/b/) .a.c' (g/b/)(g/b/) .a.c' |!p! (b4 a4) | (d'4 g2) z!<(! (c' | %26
 .c')!<)!!<(! b-.b!<)!!<(! a- .a!<)!!<(! g-.g!<)!a |!p! (b4 a4 | ^g4 a2) z!<(! ^f- | %29
 .f!<)!!<(! g-.g!<)!!<(!e- .e!<)!!<(! =f-.f!<)!g- | .g2 z!<(! c'- .c'2!<)! z e | %31
!f! (f/e/f/)g/ _a/f/g/e/ .f/(c/B/c/) (_A/c/f/).f/ | %32
 (g/f/g/)._a/ b/g/a/f/ .g/(c/=B/c/) (E/c/g/).g/ | _a4 (T_d3 c/d/) | b4 (T_D3 C/D/) | %35
 C._e'.e'.e' (e'2 _d'/c'/b/_a/) | (g/_a/g/a/) (b/c'/b/c'/) (_d'/c'/b/a/) (g/f/_e/_d/) | %37
 c.c'.c'.c' (c'2 b/_a/g/f/) | (=e/f/e/f/) (g/_a/g/a/) (b/a/g/f/) (e/_d/c/B/) | %39
 _A.c.c.c c2 (B/A/G/F/) | (C/<c/)(C/<c/) (C/<c/)(C/<c/) (C/<B/)(C/<_A/) (C/<G/)(C/<A/) | %41
 (C/<G/)(C/<G/) (C/<G/)(C/<c/) (C/<B/)(C/<_A/) (C/<G/)(C/<A/) | %42
 (C/<G/)(C/<G/) (C/<G/)(C/<c/) (C/<B/)(C/<_A/) (C/<G/)(C/<A/) |{/C} .G.c!p!.c.c!<(! .c.c.c!<)!.c | %44
!mf! c/D/E/^F/ G/=A/B/c/ .d.d.d.g | (Te3 d/e/) (fa).c'.c' | (c'=b).b.b z _bbb | %47
 (ba).a.a{/d} d'2 (c'/b/a/g/) | (f3 g/f/) (e/f/)g/a/ b/a/b/g/ | %49
 (f/g/)a/b/ (c'/d'/)e'/f'/ (g'a'b')e' | (f'g'a')f' (g'a'b')e' | %51
 (f'/e'/f'/)a'/ (f'/e'/f'/)a'/ .f'2 z2 | (c'/d'/c'/=b/) (c'/d'/c'/b/) .c'2 z2 | %53
 (f/g/f/e/) (f/g/f/e/) .f2 z2 |!p! (c'/d'/c'/=b/) (c'/d'/c'/b/) .c'2 z2 | z8 :: %56
 z!f! .[C_E].[CE].[CE] z .D.D.D | z .D.D.D z .D.D.D | (d4 G4) | (A4 D4) | (_E4 B4) | (A4 _e4) | %62
 (d/f/b/d'/) .f'.f' (f'g) (f'/_e'/)d'/c'/ | (b/a/d'/).c'/ b/a/g/f/ _e/d/g/f/ e/d/c/B/ | %64
 (c/A/c/).B/ A/G/F/_E/ D/F/B/d/ f/_e/d/c/ | (c/=B/d/).c/ B/_A/G/F/ _E/G/c/_e/ g/f/e/d/ | %66
 (d/^c/=e/).d/ c/_B/=A/G/ F/A/d/f/ a/f/e/d/ | b/f/e/d/ e/b/a/^g/ a/e/d/^c/ d/a/=g/^f/ | %68
 g/d/^c/=B/ c/g/=f/e/ f/d/c/e/ d/f/e/g/ | f/d/^c/e/ d/f/e/g/ f/d/c/e/ d/f/e/g/ | %70
 .f/(d/^c/d/ c/d/c/d/) .f/(d/c/d/ c/d/c/d/) |({/^c} a4 d4) | (e4 A4) | (f4 B4) | (c4 F4) | %75
 (d2 .G2) (_e2 .A2) | f4 =B4 | g4 c4 | c'4!p! ^g4 | a8- | a4 (^d4 | e8) | (f4 =B4) | (c4 ^F4) | %84
 ^G4 z .d.d.d | (c/d/c/=B/) .A2 z (^G/A/) (G/A/)(G/A/) | (=B/A/B/c/) .B2 z .d.d.d | %87
 (c/d/c/=B/) .A2 z (^G/A/) (G/A/)(G/A/) | (=B4 E4) | (=B4 E4) |!pp! (=B2 E2) (B2 E2) | (=B4 E4) | %92
 (=G4 C4) |!<(! (D4!<)! G,4) |!f! (E/G/c/e/) .g.g{ag^f} !>!g2 z2 | %95
 (E/G/=B/e/) .g.g{ag^f} !>!g2 z2 | (E/G/_B/e/) .g.g{ag^f} !>!g2 z2 | %97
!ff!"^rit." .g2 .[A^c']2 [Ae']2 !fermata!z2 |!p! (A4 D4) | (E4 A,4) | (D^CDE) (GF EA) | %101
 d2 (=c/B/A/^G/)!<(! (A=B/^c/ d/e/f/!<)!=g/) |!f! (a4 d4) | (e4 A4) |({/e} d^cde) (gfe)f | %105
 (agf)a (c'ba)d' | .^c'2 z"^dim." ._b .a2 z .B | .A2 z2!p! (B,4 | A,4) z2 z!f! .^F | %109
 .G.^F.G.A B3 B | .A.G.A.=B c3 c | ._B.A.B.^c d3 d | ^c/d/e/f/ e/f/g/a/ (b/a/)(b/a/) b/g/f/e/ | %113
 d/e/f/g/ f/g/a/b/ a/^c'/d'/c'/ d'/f'/e'/d'/ | ^c'/d'/c'/d'/ e'/f'/e'/f'/ g'2 z!<(! f'- | %115
 .f'2!<)! z!<(! e'- .e'2!<)! z!<(! d'- | .d'2!<)! z!<(! ^c'- .c'2!<)! z d' | %117
 (d3 e/d/) (^c/d/)(e/f/) (g/e/)(g/e/) | (d3 e/d/) (^c/d/)(e/f/) (g/e/)(g/e/) | %119
"^cresc." .d.f.e.a .d.f.e.a |!f! .f.a ([da]/d'/)([da]/d'/) .[db].d' ([da]/d'/)([da]/d'/) | %121
 (b4 a4) | ^g4 !fermata!=g2 !fermata!z!<(! f- | .f2!<)! z!<(! e- .e2!<)! z!<(! d- | %124
 .d2!<)! z!<(! ^c- .c2!<)! z c |!f! (d/f/b/=c'/) .d'.d' .d'2 z2 | (_e/f/a/c'/) ._e'.e' .e'2 z2 | %127
 (d/f/b/c'/) .d'.d' .d'2 z2 | (_e/g/c'/d'/) ._e'.e' e'2 z2 |!p! (d'4 g4) | (a4 d4) | %131
 z (.=e.e.e) z (.f.f.f) | z (.^g.g.g) z (.a.a.a) | z (.a.a.a) z (.b.b.b) | z (.^c'.c'.c') d'2 z2 | %135
 z (.e'.e'.e') f'2 z2 |!pp! z2 (.^C2 .C2 .C2) |1!<(! D8!<)! :|2 !fermata!=C6 !fermata!z z || %139
!f! (d/_e/d/^c/) (d/e/d/c/) d/g/b/a/ g/f/=e/d/ | (=c/d/c/=B/) (c/d/c/B/) c/f/a/g/ f/e/d/c/ | %141
 _B/a/g/f/ e/d/c/B/ A/g/f/e/ d/c/B/A/ | ^G d2 f2 e2 d | ^c a2 a2 a2 a | %144
 (b/=c'/b/a/) (b/c'/b/a/) .b.b z b | (a/b/a/^g/) (a/b/a/g/) .a.a z (a | .^g).g z (g .=g).g z g | %147
"^cresc." f4 (T^f3 e/f/) |!f! (g/^f/g/a/) (g/f/g/a/) g g2 g | .g z .=f z .e z .^c z | %150
!p!!<(! (d4 A4) | (B4!<)! ^C4) |!ff! .D z .[A,E] z .[A,F] z .[E^c] z | %153
 .d z .[Ae] z .[Af] z .[e^c'] z | [Ddd']2 z2 z4 |] %155
V:2
 x8 | x8 | x8 | x8 | x8 | x8 | x8 | x8 | x8 | x8 | x8 | x8 | x8 | x8 | x8 | x8 | x8 | x8 | x8 | %19
 x8 | x8 | x8 | x8 | cccc cccc | x8 | x8 | x8 | x8 | x8 | x8 | x8 | x8 | x8 | x8 | x8 | x8 | x8 | %37
 x8 | x8 | x8 | x8 | x8 | x8 | x8 | x8 | x8 | x8 | x8 | x8 | x8 | x8 | x8 | x8 | x8 | x8 | x8 :: %56
 x8 | x8 | x8 | x8 | x8 | x8 | x8 | x8 | x8 | x8 | x8 | x8 | x8 | x8 | x8 | x8 | x8 | x8 | x8 | %75
 x8 | x8 | x8 | x8 | x8 | x8 | x8 | x8 | x8 | x8 | x8 | x8 | x8 | x8 | x8 | x8 | x8 | x8 | x8 | %94
 x8 | z4 x4 | z4 x4 | x8 | x8 | x8 | x8 | x8 | x8 | x8 | x8 | x8 | x8 | x8 | x8 | x8 | x8 | x8 | %112
 x8 | x8 | x8 | x8 | x8 | x8 | x8 | x8 | x8 | x8 | x8 | x8 | x8 | x8 | x8 | x8 | x8 | x8 | x8 | %131
 x8 | x8 | x8 | x8 | x8 | x8 |1 x8 :|2 x8 || x8 | x8 | x8 | x8 | x8 | x8 | x8 | x8 | x8 | x8 | x8 | %150
 x8 | x8 | x8 | x8 | x8 |] %155
V:3
 z!f! .A,.A,.A, z .A,.A,.A, | z .B,.B,.B, z .^C.C.C | (D^CDE) (ED C)(A/G/) | %3
 (F/G/F/E/) .D.D .^C2 z2 | z!p! .A.A.A z .A.A.A | z .B.B.B z .^c.c.c | d2 z (A/e/) (ed^c)d | %7
 (fed)f (agf)a |!mf! .g2 z .f .e2 z .F | .E2 z2 z2 z!f! .D | .D.D.D.D D2 z2 | %11
 .[A,F] z .[A,F] z .D2 z2 | z8 | z8 | (d4 G4) | (B4 F2) c2 | d4 z .e.e.e | %17
 (ef).f.f (B>c) _e/d/c/B/ | (A3 B/A/) G2 z2 | [G,E][GB][GB][GB] [GB][GB][GB][GB] | %20
 [A,F][FA][FA][FA] [FA][FA][FA][FA] | .[A^f].[Af] z .[Bg] z .[ce] z .[c=f] | %22
 z"^cresc." (ga).a z (ga).a |!f! z (GA).A z (GA).A |!p! (B4 A4) | (d4 G2) z!<(! (a | %26
 .a)!<)!!<(! g-.g!<)!!<(! f- .f!<)!!<(! e-.e!<)!f |!p! (B4 A4 | ^G4 A2) z!<(! c- | %29
 .c!<)!!<(! d-.d!<)!!<(! B- .B!<)!!<(! c-.c!<)!d- | .d2 z!<(! [Be]- .[Be]2!<)! z G | %31
!f! [_A,F]2 .c._d .c z z2 | [G,Ec] z .c.=B .c z z2 | !>!C4 !>!_D4 | (T_D3 C/D/) .B2 .B2 | %35
 (_A4 _D4) | (_E4 G,4) | (_A,4 F4) | (G2 =E2) (C2 G2) | _A2 A4 F2 | G2 z _A (GFEF) | %41
 E2 z _A (GFEF) | E2 z _A (GFEF) | E2 z2 z4 |!mf! (d4 B2 G2) | c4 F2 c2 | d4 z .e.e.e | %47
 (ef).f.f (B>c) (_e/d/c/B/) | A4 B2 [B,=E]2 | [A,F]4 E4 | [A,F]4 E4 | %51
 .[A,F].[A,F].[A,F].[A,F] [A,F]2 z2 | .B.B.B.B B2 z2 | .C.D.C.D C2 z2 |!p! .B.B.B.B B2 z2 | z8 :: %56
 z .A,.A,.A, z .C.C.C | z .B,.B,.B, z .A,.A,.A, | z8 | z8 | (_e4 G4) | (F4 c4) | (B4 _E4) | %63
 (F4 B,4) | z8 | z8 | z8 | (G2 C2) (F2 B,2) | (E2 A,2) .D.G.F.^C | .D.G.F.^C .D.G.F.C | %70
 D2 (F4 D2) | A2 A4 D2- | D2 E4 A,2- | A,2 F4 B,2- | B,2 C4 F2- | F2 G4 A2 | %76
 [F=B][FB][FB][FB] [FB][FB][FB][FB] | [Gc][Gc][Gc][Gc] [Gc][Gc][Gc][Gc] | [Gc]2 z2 z4 | %79
!p! (f4 ^c4) | (d4 A4) | (^G4 =B4) | [^G=B]8 | (A4 ^D4) | .E.E.E.E z .E.E.E | z EEE z ^DDD | %86
 z EEE z EEE | z EEE z ^DDD | z EEE z EEE | z EEE z EEE | z!pp! E z E z E z E | z2 (.E2 .E2 .E2) | %92
 [=G,E]8- |!<(! [=G,E]8!<)! |!f! [G,E]4 (E/G/c/e/) .g.g |{ag^f} !>!g2 z2 (E/G/=B/e/) .g.g | %96
{ag^f} !>!g2 z2 (E/G/_B/d/) .g.g |!ff! .g2 .e2 [E^c]2 !fermata!z2 | z!p! .A,.A,.A, z .A,.A,.A, | %99
 z .B,.B,.B, z .^C.C.C | (D^CDE) (ED C)(A/G/) | (F/G/F/E/) DD!<(! ^C2!<)! z2 | %102
 z!f! .A.A.A z .A.A.A | z .B.B.B z .^c.c.c | d2 z ((A/e/)) (ed^c)d | (fed)f (agf)a | %106
 .g2 z"^dim." .f .e2 z .F | .E2 z2 z4 | z8 | z2 z!f! .D .D.C.D.E | F3 .F .E.D.E.^F | %111
 G3 .G .=F.E.F.^G | A2 [E^c]4 [Ec]2 | [Fd]2 [Fd]4 [Fd]2 | ([Ge]2 [Fd]2 [E^c]2) z!<(! a- | %115
 .a2!<)! z!<(! g- .g2!<)! z!<(! f- | .f2!<)! z!<(! e- .e2!<)! z2 | (A3 B/A/) B2 E2 | %118
 F (A2 B/A/) .B.B.E.E |"^cresc." .F A2 .^c .d A2 .c |!f! d2 d4 d2 | d8- | %122
 d4 !fermata!e2 !fermata!z!<(! d- | .d2!<)! z!<(! c- .c2!<)! z!<(! A- | %124
 .A2!<)! z!<(! G- .G2!<)! z g |!f! f4 B4 | c4 F4 | f4 B4 | c4 F2 z2 | z!p! (.c.c.c) z (.B.B.B) | %130
 z (.^c.c.c) z (.d.d.d) | z (.^c.c.c) z (.d.d.d) | z (.=B.B.B) z (.^c.c.c) | %133
 z (.a.a.a) z (._b.b.b) | z (.e.e.e) f2 z2 | z (.^c'.c'.c') d'2 z2 | %136
!pp! z2 (.[A,E]2 .[A,E]2 .[A,E]2) |1!<(! [A,D]8!<)! :|2 !fermata![A,D]6 !fermata!z!<(! D-!<)! || %139
 .D2 z!<(! D-!<)! .D2 z!<(! C-!<)! | .C2 z!<(! C-!<)! .C2 z!<(! B,-!<)! | %141
 .B,2 z!f! (G/F/ E) z F z | D4 ^G4 | (A/E/D/E/) (^C/D/C/E/) (D/E/D/F/) (E/F/E/=G/) | %144
 .F.F z F (G/A/G/^F/) (G/A/G/=F/) | .E.E z E (F/G/F/E/) (F/G/F/E/) | D4 (TE3 D/E/) | %147
"^cresc." D4 =c4 |!f! B4- B B2 B | .A z .A z .G z .E z |!p!!<(! (F4 ^F4) | ([G,G]4!<)! [_B,=E]4) | %152
!ff! .[A,F] z .^C z .D z .G z | .F z .[E^c] z .[Dd] z .[Ag] z | [DAf]2 z2 z4 |] %155
V:4
 x8 | x8 | x8 | x8 | x8 | x8 | x8 | x8 | x8 | x8 | x8 | x8 | x8 | x8 | x8 | x8 | x8 | x8 | x8 | %19
 x8 | x8 | x8 | x8 | x8 | x8 | x8 | x8 | x8 | x8 | x8 | x8 | x8 | x8 | x8 | x8 | x8 | x8 | x8 | %38
 x8 | x8 | x8 | x8 | x8 | x8 | x8 | x8 | x8 | x8 | x8 | x4 (B,3 G,) | z4 (B,3 G,) | x8 | x8 | x8 | %54
 x8 | x8 :: x8 | x8 | x8 | x8 | x8 | x8 | x8 | x8 | x8 | x8 | x8 | x8 | x8 | x8 | x8 | x8 | x8 | %73
 x8 | x8 | x8 | x8 | x8 | x8 | x8 | x8 | x8 | x8 | x8 | x8 | x8 | x8 | x8 | x8 | x8 | x8 | x8 | %92
 x8 | x8 | x8 | x8 | x8 | x8 | x8 | x8 | x8 | x8 | x8 | x8 | x8 | x8 | x8 | x8 | x8 | x8 | x8 | %111
 x8 | x8 | x8 | x8 | x8 | x8 | x8 | x8 | x8 | x8 | x8 | x8 | x8 | x8 | x8 | x8 | x8 | x8 | x8 | %130
 x8 | x8 | x8 | x8 | x8 | x8 | x8 |1 x8 :|2 x8 || x8 | x8 | x8 | x8 | x8 | x8 | x8 | x8 | x8 | x8 | %149
 x8 | x8 | x8 | x8 | x8 | x8 |] %155
V:5
!f! .F,.F,.F,.F, z .F,.F,.F, | z .G,.G,.G, z .G,.G,.G, | A,4- A,3 ^C, | (D,E,F,D,) .E,2 z2 | %4
 z!p! .F.F.F z .F.F.F | z .G.G.G z .G.G.G | A4- A2 z2 | z4 z2 z .f |!mf! .e2 z .d .^c2 z .D | %9
 .^C2 z .F, .E,2 z!f! .A, | .G,.C.B,.C D2 z2 | .D z .G, z .F,2 z2 | (F4 B,4) | (C4 F,4) | %14
 .B,.B,.B,.B, .B.B.B.B | .B.B.B.B A2 F2 | F4 z .G.G.G | (GF).F.F [G,D]4 | (C4 C,2) z2 | %19
 E,EEE EEEE | F,[A,F][A,F][A,F] [A,F][A,F][A,F][A,F] | .D.D z .d z .G z .A | %22
"^cresc." (BE).F.B (BE).F.B |!f! (BE).F.B (BE.F) z |!p! (F4 E4 | D4 E2) z!<(! (F | %26
 .F)!<)!!<(! d-.d!<)!!<(! c- .c!<)!!<(! B-.B!<)! z |!p! (F4 E4 | D4 E2) z!<(! A- | %29
 .A!<)!!<(! B-.B!<)!!<(! G- .G!<)!!<(! A-.A!<)!G- | .G2 z!<(! G- .G2!<)! z B, | %31
!f! _A,2 ._A.B .A z z2 | C z .E.F .E z z2 | F2 _A,4 (_A>F) | _E2 E4 E2 | [_A,_E]4 F4 | G4 [_EB]4 | %37
 c2 z2 (_D4 | C4) =E,4 | F,2 F4 F,2 | E,2 z2 z (C,C).C | C,2 z2 z (C,C).C | C,2 z2 z (C,C).C | %43
 .C,2 z2 z4 |!mf! (^F,4 G,2) B2 | BBBB A2 =F2 | F4 z .G.G.G | (GF).F.F [G,D]4 | C6 C2- | %49
 C2 C4 C2- | C2 C4 C2- | C.C.C.C C2 z2 | .G.G.G.G G2 z2 | .A,.B,.A,.B, A,2 z2 |!p! .G.G.G.G G2 z2 | %55
 z8 :: z!f!!f! .^F,.F,.F, z .F,.F,.F, | z .G,.G,.G, z .^F,.F,.F, | z .G,.G,.G, z .G,.G,.G, | %59
 z .^F,.F,.F, z .F,.F,.F, | z .G,.G,.G, z ._E.E.E | z .=F.F.F z .A,.A,.A, | B,2 z2 z4 | z8 | z8 | %65
 (G4 C4) | z8 | z2 (C2 F,2) (B,2 | E,2) (A,2 D,2) z2 | z8 | z4 (^G,4 | A,2) z2 (F4 | B,4) (C4 | %73
 F,4) (D4 | G,4) (A,4 | D,2) D2 z2 _E2 | _AAAA AAAA | GCCC CCCC | Gccc!p! cccc | FFFF FFFF | %80
 FFFF FFFF | EEEE EEEE | (d4 E4) | (^D4 A4) | .^G.^G,.G,.G, z .G,.G,.G, | z A,A,A, z A,A,A, | %86
 z ^G,G,G, z G,G,G, | z A,A,A, z A,A,A, | z ^G,G,G, z G,G,G, | z ^G,G,G, z G,G,G, | %90
 z!pp! ^G, z G, z G, z G, | z2 (.^G,2 .G,2 .G,2) | (E,4 =G,2 C2) |!<(! ((=B,4!<)! [B,D]4)) | %94
!f! [G,E]8 | [G,D]8 | [G,D]8 |!ff! .^C2 .E2 [A,G]2 !fermata!z2 | z!p! .F,.F,.F, z .F,.F,.F, | %99
 z .G,.G,.G, z .G,.G,.G, | A,4- A,3 ^C, | (D,E,F,D,)!<(! .E,2!<)! z2 | z!f! .F.F.F z .F.F.F | %103
 z .G.G.G z .G.G.G | A4- A2 z2 | z4 z2 z .f | .e2 z"^dim." .d .^c2 z .D | .^C2 z2!p! (F,4 | %108
 E,4) z2 z!f! .D | D3 .C .B,.A,.B,.G, | F,2 z .G, C,2 z2 | z2 z A, D,2 z .D | E2 G4 G2 | %113
 (F2 A2 F2 D2) | (B2 A2 G2) z!<(! d- | .d2!<)! z!<(! B- .B2!<)! z!<(! A- | %116
 .A2!<)! z!<(! G- .G2!<)! z2 | (F3 G/F/) G2 ^C2 | D (F2 G/F/) .G.G.^C.C | %119
"^cresc." D2 z .G .FD z .E |!f! F2 c2 B2 c2 | (B4 c4) | d4 !fermata!A2 !fermata!z!<(! A- | %123
 .A2!<)! z!<(! G- .G2!<)! z!<(! F- | .F2!<)! z!<(! E- .E2!<)! z E |!f! D4 (D/F/B/c/) .d.d | %126
 _e2 z2 (_E/F/A/c/) .e.c | d2 z2 (D/F/B/c/) .d.d | _e2 z2 [C_E]2 z2 | z!p! (.A.A.A) z (.B.B.B) | %130
 z (.G.G.G) z (.F.F.F) | z (.A.A.A) z (.A.A.A) | z (.d.d.d) z (.e.e.e) | z (.d.d.d) z (.d.d.d) | %134
 z (.A.A.A) F2 z2 | z (.A.A.A) A2 z2 |!pp! z2 (.G,2 .G,2 .G,2) |1!<(! F,8!<)! :|2 %138
 !fermata!D,6 !fermata!z z || z!<(! A,-!<)! .A,2 z!<(! B,-!<)! .B,2 | %140
 z!<(! G,-!<)! .G,2 z!<(! A,-!<)! .A,2 |!f! D, z E, z ^C, z D, z | ^G,4 D (E2 F/D/) | %143
 E^C (A,/=B,/A,/C/) (B,/C/B,/D/) (C/D/C/E/) | .D.D z D (E/F/E/D/) (E/F/E/D/) | %145
 .^C.C z C (D/E/D/C/) (D/E/D/=C/) | =B,4 (T^C3 B,/C/) |"^cresc." D8- |!f! D4 E4- | %149
 .E z .F z ._B z .G z |!p!!<(! F2 A,2 =C4 | (B,4!<)! G,4) |!ff! .F, z .A, z .A, z .[A,G] z | %153
 .[A,A] z .[A,G] z .[A,F] z .[A,F] z | [A,F]2 z2 z4 |] %155
V:6
!f! D,,.D,.D,.D, z .D,.D,.D, | z .D,.D,.D, z .E,.E,.E, | (F,E,F,^C,) D,2 A,,2 | (B,,4 .A,,2) z2 | %4
 z!p! .D.D.D z .D.D.D | z .D.D.D z .E.E.E | (FEF^C) (D2 A,) z | z8 | z8 | %9
 z2 z .D, .^C,2 z!f! .=C, | .B,,.A,,.B,,.^F,, G,,2 z2 | .A,, z .A,, z .D,,2 z2 | z8 | z8 | z8 | %15
 z8 | (G,4 C,4) | (D,4 G,,4) | C,CCC C2 z2 | C,,C,C,C, C,C,C,C, | C,,C,C,C, C,C,C,C, | %21
 .C, z .B,, z .B, z .A, z |"^cresc." .E,.C,.F,.C, .E,.C,.F, z | %23
!f! (E,,/C,,/E,,/C,,/) (F,,/C,,/F,,/C,,/) (E,,/C,,/E,,/C,,/) .F,, z |!p! (D4 C4 | B,6) z!<(! (A, | %26
 .A,)!<)!!<(! B,-.B,!<)!!<(! C- .C!<)!!<(! C,-.C,!<)! z |!p! (D4 C4 | =B,4 C2) z!<(! D- | %29
 .D!<)!!<(! G,-.G,!<)!!<(! C- .C!<)!!<(! F,-.F,!<)!B,- | .B,2 z!<(! C,- .C,2!<)! z C, | %31
!f! F,2 z2 F,2 z2 | E,2 z2 E,2 z2 | F,,F,F,F, F,F,F,F, | G,,G,G,G, G,G,G,G, | _A,2 z2 z4 | z8 | %37
 z8 | z8 | (F,,4 _D,,4) | (C,,C,).C, z z4 | (C,,C,).C, z z4 | (C,,C,).C,.C, .C,.C,.C,.C, | %43
 C,,2 z2 z4 | z8 | z8 |!mf! (G,4 C,4) | (D,4 G,,4) | C,C,C,C, C,C,C,C, | F,F,F,F, F,F,F,F, | %50
 F,F,F,F, F,F,F,F, | .F,.F,.F,.F, F,2 z2 | .E.E.E.E E2 z2 | .F,.F,.F,.F, F,2 z2 | %54
!p! .E.E.E.E E2 z2 | %55
!<(! (F,,/G,,/F,,/E,,/) (F,,/G,,/F,,/E,,/) (F,,/G,,/F,,/E,,/) (F,,/G,,/F,,/!<)!E,,/) :: %56
!f! (D,,4 A,,4) | (G,,4 D,4) | z ._E,.E,.E, z .E,.E,.E, | z .D,.D,.D, z .D,.D,.D, | %60
 z .C,.C,.C, z .C.C.C | z .C.C.C z .F,.F,.F, | B,2 z2 z4 | z8 | (F,4 B,,4) | z8 | (A,,4 D,,4) | %67
 z8 | z8 | z8 | (D,4 B,,4) | A,,2 z2 (D,4 | G,,4) (A,,4 | D,,4) (B,4 | _E,4) (F,4 | B,,4) C,4 | %76
 D,D,D,D, D,D,D,D, | _E,E,E,E, E,E,E,E, | =E,EEE!p! EEEE | F4 z4 | z8 | z8 | %82
!p! E,,E,E,E, E,E,E,E, | E,,E,E,E, E,E,E,E, | (E,,4 =B,,4) | (F,,4 C,4) | (E,,4 =B,,4) | %87
 (F,,4 C,4) | (E,,4 =B,,4) | (E,,4 =B,,4) |!pp! (E,,2 =B,,2) (E,,2 B,,2) | E,,8 | %92
 (.C,,.C,,.C,,.C,,) (.C,,.C,,.C,,.C,,) |!<(! C,,C,,C,,C,, C,,C,,C,,!<)!C,, | %94
!f! .C,,.C,.C,.C, .C,.C,.C,.C, | =B,,B,,B,,B,, B,,B,,B,,B,, | _B,,B,,B,,B,, B,,B,,B,,B,, | %97
!ff! .A,, z .A,, z A,,2 !fermata!z2 | z!p! .D,.D,.D, z .D,.D,.D, | z .D,.D,.D, z .E,.E,.E, | %100
 (F,E,F,^C,) D,2 A,,2 | (B,,4!<(! .A,,2)!<)! z2 | z!f! .D.D.D z .D.D.D | z .D.D.D z .E.E.E | %104
 (FEF^C) (D2 A,) z | z8 | z8 | z4!p! (D,4 | ^C,4) z2 z!f! .=C, | .B,,.A,,.B,,.^F,, G,,3 .C, | %110
 =F,,2 z2 z2 z .D, | G,,2 z2 z2 z .B,, | A,,A,,A,,A,, A,,A,,A,,A,, | A,,A,,A,,A,, A,,A,,A,,A,, | %114
 A,,A,,A,,A,, A,,2 z!<(! D,- | .D,2!<)! z!<(! G,- .G,2!<)! z!<(! A,- | %116
 .A,2!<)! z!<(! A,,- .A,,2!<)! z2 | D,D,D,D, D,D,D,D, | D,D,D,D, D,D,D,D, | %119
"^cresc." .D,.D.^C.A, z .D.C.A, |!f! D2 (^F,/D,/F,/D,/) (G,/D,/G,/D,/) (F,/D,/F,/D,/) | (G,4 A,4) | %122
 =B,4 !fermata!^C2 !fermata!z!<(! D- | .D2!<)! z!<(! G,- .G,2!<)! z!<(! A,- | %124
 .A,2!<)! z!<(! A,,- .A,,2!<)! z A,, |!f! B,,B,,B,,B,, B,,B,,B,,B,, | B,,B,,B,,B,, B,,B,,B,,B,, | %127
 B,,B,,B,,B,, B,,B,,B,,B,, | B,,B,,B,,B,, B,,2 z2 | z!p! (.^F.F.F) z (.G.G.G) | %130
 z (.E.E.E) z (.D.D.D) | (A,4 D,4) | (E,4 A,,4) | (D,4 G,,4) | (A,,4 D,,4) | z (.A,.A,.A,) D2 z2 | %136
!pp! z2 (.A,,2 .A,,2 .A,,2) |1!<(! D,,8!<)! :|2 !fermata!^F,,6 !fermata!z z || %139
 z!<(! ^F,-!<)! .F,2 z!<(! G,-!<)! .G,2 | z!<(! E,-!<)! .E,2 z!<(! =F,-!<)! .F,2 | %141
 z!f! D, z E, z ^C, z (D,/=C,/) | (B,,/C,/B,,/D,/) (B,,/C,/B,,/D,/) (B,,/C,/B,,/D,/) .B,,.B,, | %143
 A,,2 A,,2 A,,2 A,,2 | A,,8- | A,,8- | A,,8 | %147
"^cresc." (B,,/C,/B,,/A,,/) (B,,/C,/B,,/A,,/) (B,,/C,/B,,/A,,/) (B,,/C,/B,,/A,,/) | %148
!f! (G,,/A,,/B,,/C,/ B,,/A,,/G,,/=F,,/) (E,,/F,,/G,,/A,,/ G,,/F,,/E,,/D,,/) | %149
 .^C,, z .D,, z .G,, z .A,, z | %150
!p!!<(! (D,,/E,,/D,,/^C,,/) (D,,/E,,/D,,/C,,/) (D,,/E,,/D,,/C,,/) (D,,/E,,/D,,/C,,/) | %151
 (D,,/E,,/D,,/^C,,/) (D,,/E,,/D,,/C,,/) (D,,/E,,/D,,/C,,/) (D,,/E,,/D,,/!<)!C,,/) | %152
!ff! .D,, z .A,, z .D, z .A, z | .D, z .A, z .D, z .A,, z | D,,2 z2 z4 |] %155

